X:1
T:Behold a King
T:Fugue 1 in C major from The Well-Tempered Clavier I
T:Behold a King Fugue 1 in C major from The Well-Tempered Clavier I
T:Johann Sebastian Bach (1685-1750)
T:Arrangement and textual setting by Peter Kalkavage (Isaiah 32:1)
T:Creative Commons Attribution 4.0 International (CC BY 4.0) Copyright © 2019 Provided to the Choral Public Domain Library (http://www.cpdl.org) by the Freshman Chorus of St. John's College of Annapolis. Edition may be freely distributed, duplicated, performed, or recorded. 
T:Creative Commons Attribution 4.0 International (CC BY 4.0) Copyright © 2019 Provided to the Choral Public Domain Library (http://www.cpdl.org) by the Freshman Chorus of St. John's College of Annapolis. Edition may be freely distributed, duplicated, performed, or recorded. 
C:Johann Sebastian Bach (1685-1750)
Z:Arrangement and textual setting by Peter Kalkavage (Isaiah 32:1)
Z:Creative Commons Attribution 4.0 International (CC BY 4.0) Copyright © 2019
Z:Provided to the Choral Public Domain Library (http://www.cpdl.org)
Z:by the Freshman Chorus of St. John's College of Annapolis.
Z:Edition may be freely distributed, duplicated, performed, or recorded.
Z:
%%score 1 2 3 4
L:1/8
M:4/4
K:C
V:1 treble nm="S"
V:2 treble nm="A"
V:3 bass nm="T"
V:4 bass nm="B"
V:1
 z8 | z4 z GAB | c3/2d/4c/4 Be Ad- d/e/d/c/ x16 | B/G/A/B/ c/B/c/d/ e/d/e/^f/ gB | %4
w: |Be- hold a|king shall * reign in right- * * * eous- *|ness * a * king * shall * reign, * a * king shall|
 cA d/c/B/A/ G>G F/E/F/G/ | A/G/A/B/ c4 B2 || !fermata!c8 |] %7
w: reign in right- * eous- * ness, a king * * *|* * a * king shall|reign.|
V:2
 z CDE F3/2G/4F/4 EA | DG- G/A/G/F/ E/F/E/D/ C/D/C/B,/ | A,^F G2- GF/E/ FD x16 | G=FED C z z G- | %4
w: Be- hold a king shall * reign in|right- * * * eous- * ness; * a * king * shall *|reign, shall reign, * * * * shall|reign, a king shall reign shall|
 GF/E/ F2- F/F/E D2 | CF z/ G/F/E/ FD GF || !fermata!E8 |] %7
w: * * * * * * * reign.|Be- hold, a king * * a king shall|reign.|
V:3
 z8 | z8 | z8 z G,A,B, C3/2D/4C/4 B,E x8 | A,D- D/E/D/C/ B,(CC)_B, | A,D G,C z/ A,/B,/C/ DD | %5
w: ||Be- hold a king shall * reign in|right- * * * eous- * ness, right- * eous-|ness, a king, * a king * * shall|
 !fermata!G,8 || x8 |] %7
w: reign.||
V:4
 z8 | z8 | z8 z8 z4 z C,D,E, | F,3/2G,/4F,/4 E,A, D,G,- G,/A,/F,/G,/ | !fermata!C,8 | x8 || x8 |] %7
w: ||Be- hold a|king shall * reign in right- * * * eous- *|ness.|||

